svg/country-4x3/au.svg

<?xml version="1.0" encoding="UTF-8" standalone="no"?>
<!-- Created with Sodipodi ("http://www.sodipodi.com/") -->

<svg
   xmlns:dc="http://purl.org/dc/elements/1.1/"
   xmlns:cc="http://creativecommons.org/ns#"
   xmlns:rdf="http://www.w3.org/1999/02/22-rdf-syntax-ns#"
   xmlns:svg="http://www.w3.org/2000/svg"
   xmlns="http://www.w3.org/2000/svg"
   xmlns:sodipodi="http://sodipodi.sourceforge.net/DTD/sodipodi-0.dtd"
   xmlns:inkscape="http://www.inkscape.org/namespaces/inkscape"
   version="1"
   x="0.00000000"
   y="0.00000000"
   width="640"
   height="480"
   id="svg1"
   inkscape:version="0.48.1 r9760"
   sodipodi:docname="au.svg">
  <sodipodi:namedview
     pagecolor="#ffffff"
     bordercolor="#666666"
     borderopacity="1"
     objecttolerance="10"
     gridtolerance="10"
     guidetolerance="10"
     inkscape:pageopacity="0"
     inkscape:pageshadow="2"
     inkscape:window-width="1280"
     inkscape:window-height="746"
     id="namedview3001"
     showgrid="false"
     inkscape:zoom="1.0958333"
     inkscape:cx="320"
     inkscape:cy="240"
     inkscape:window-x="0"
     inkscape:window-y="24"
     inkscape:window-maximized="1"
     inkscape:current-layer="svg1" />
  <metadata
     id="metadata3003">
    <rdf:RDF>
      <cc:Work
         rdf:about="">
        <dc:format>image/svg+xml</dc:format>
        <dc:type
           rdf:resource="http://purl.org/dc/dcmitype/StillImage" />
      </cc:Work>
    </rdf:RDF>
  </metadata>
  <defs
     id="defs3" />
  <g
     id="flag"
     inkscape:label="#g3054">
    <rect
       id="rect124"
       style="font-size:12px;fill:#000066;stroke-width:1pt"
       y="0"
       x="0"
       height="480"
       width="640" />
    <g
       style="font-size:12px"
       id="g584"
       transform="scale(5.7613652,8.333333)">
      <path
         inkscape:connector-curvature="0"
         id="path146"
         style="fill:#ffffff;stroke-width:1pt"
         d="M 0,0 0,3.3541 53.2918,30 60,30 60,26.6459 6.7082,0 0,0 z M 60,0 60,3.35405 6.7082,30 0,30 0,26.6458 53.2918,0 60,0 z" />
      <path
         inkscape:connector-curvature="0"
         id="path136"
         style="fill:#ffffff;stroke-width:1pt"
         d="M 25,0 25,30 35,30 35,0 25,0 z M 0,10 0,20 60,20 60,10 0,10 z" />
      <path
         inkscape:connector-curvature="0"
         id="path141"
         style="fill:#cc0000;stroke-width:1pt"
         d="m 0,12 0,6 60,0 0,-6 -60,0 z m 27,-12 0,30 6,0 0,-30 -6,0 z" />
      <path
         inkscape:connector-curvature="0"
         id="path150"
         style="fill:#cc0000;stroke-width:1pt"
         d="M 0,30 20,20 24.4721,20 4.47214,30 0,30 z M 0,0 20,10 15.5279,10 0,2.23607 0,0 z m 35.5279,10 20,-10 L 60,0 40,10 35.5279,10 z M 60,30 40,20 44.4721,20 60,27.7639 60,30 z" />
    </g>
    <g
       transform="matrix(1.0075285,0,0,1.0075285,1.3538494,-37.739883)"
       id="g3045">
      <polygon
         transform="matrix(7.6726747,0,0,7.6726747,-1.31484,66.419658)"
         points="38.7744,47.0027 33.1273,47.494 33.905,53.1087 30,49 26.095,53.1087 26.8727,47.494 21.2256,47.0027 26.1003,44.1099 22.9635,39.3886 28.2645,41.3961 30,36 30,36 31.7355,41.3961 37.0365,39.3886 33.8997,44.1099 "
         style="font-size:12px;fill:#ffffff;fill-rule:evenodd;stroke-width:1pt"
         id="polygon589" />
      <g
         transform="matrix(6.9999103,0,0,6.9999103,-135.42775,119.74311)"
         id="g596"
         style="font-size:12px">
        <polygon
           points="88.143,49.5761 86.6493,47.3279 89.1736,48.2839 90,45.7143 90,45.7143 90.8264,48.2839 93.3507,47.3279 91.857,49.5761 94.1783,50.9537 91.4892,51.1876 91.8595,53.8613 90,51.9048 88.1405,53.8613 88.5108,51.1876 85.8217,50.9537 "
           style="fill:#ffffff;fill-rule:evenodd;stroke-width:1pt"
           id="polygon590" />
        <polygon
           points="88.143,9.57615 86.6493,7.3279 89.1736,8.28387 90,5.71429 90,5.71429 90.8264,8.28387 93.3507,7.3279 91.857,9.57615 94.1783,10.9537 91.4892,11.1876 91.8595,13.8613 90,11.9048 88.1405,13.8613 88.5108,11.1876 85.8217,10.9537 "
           style="fill:#ffffff;fill-rule:evenodd;stroke-width:1pt"
           id="polygon592" />
        <polygon
           points="73.143,25.8262 71.6493,23.5779 74.1736,24.5339 75,21.9643 75,21.9643 75.8264,24.5339 78.3507,23.5779 76.857,25.8262 79.1783,27.2037 76.4892,27.4376 76.8595,30.1113 75,28.1548 73.1405,30.1113 73.5108,27.4376 70.8217,27.2037 "
           style="fill:#ffffff;fill-rule:evenodd;stroke-width:1pt"
           id="polygon593" />
        <polygon
           points="101.476,21.8262 99.9826,19.5779 102.507,20.5339 103.333,17.9643 103.333,17.9643 104.16,20.5339 106.684,19.5779 105.19,21.8262 107.512,23.2037 104.823,23.4376 105.193,26.1113 103.333,24.1548 101.474,26.1113 101.844,23.4376 99.1551,23.2037 "
           style="fill:#ffffff;fill-rule:evenodd;stroke-width:1pt"
           id="polygon594" />
        <polygon
           points="96,33.6111 94.5305,34.5225 94.9433,32.8434 93.6224,31.7275 95.3469,31.6011 96,30 96,30 96.6531,31.6011 98.3776,31.7275 97.0567,32.8434 97.4695,34.5225 "
           style="fill:#ffffff;fill-rule:evenodd;stroke-width:1pt"
           id="polygon595" />
      </g>
    </g>
  </g>
</svg>

<?xml version="1.0" encoding="UTF-8" standalone="no"?>
<!-- Created with Sodipodi ("http://www.sodipodi.com/") -->
<svg id="svg1" xmlns:rdf="http://www.w3.org/1999/02/22-rdf-syntax-ns#" xmlns="http://www.w3.org/2000/svg" height="480" width="640" version="1" y="0" x="0" xmlns:cc="http://creativecommons.org/ns#" xmlns:dc="http://purl.org/dc/elements/1.1/">
 <metadata id="metadata3003">
  <rdf:RDF>
   <cc:Work rdf:about="">
    <dc:format>image/svg+xml</dc:format>
    <dc:type rdf:resource="http://purl.org/dc/dcmitype/StillImage"/>
   </cc:Work>
  </rdf:RDF>
 </metadata>
 <g id="flag" stroke-width="1pt">
  <rect id="rect124" height="480" width="640" y="0" x="0" fill="#006"/>
  <g id="g584" transform="scale(5.7614 8.3333)">
   <path id="path146" d="m0 0v3.3541l53.292 26.646h6.708v-3.354l-53.292-26.646h-6.708zm60 0v3.354l-53.292 26.646h-6.708v-3.354l53.292-26.646h6.708z" fill="#fff"/>
   <path id="path136" d="m25 0v30h10v-30h-10zm-25 10v10h60v-10h-60z" fill="#fff"/>
   <path id="path141" d="m0 12v6h60v-6h-60zm27-12v30h6v-30h-6z" fill="#c00"/>
   <path id="path150" d="m0 30 20-10h4.472l-20 10h-4.472zm0-30 20 10h-4.472l-15.528-7.7639v-2.2361zm35.528 10 20-10h4.472l-20 10h-4.472zm24.472 20-20-10h4.472l15.528 7.764v2.236z" fill="#c00"/>
  </g>
  <g id="g3045" fill-rule="evenodd" fill="#fff" transform="matrix(1.0075 0 0 1.0075 1.3538 -37.74)">
   <polygon id="polygon589" transform="matrix(7.6727 0 0 7.6727 -1.3148 66.42)" points="38.774 47.003 33.127 47.494 33.905 53.109 30 49 26.095 53.109 26.873 47.494 21.226 47.003 26.1 44.11 22.964 39.389 28.264 41.396 30 36 30 36 31.736 41.396 37.036 39.389 33.9 44.11"/>
   <g id="g596" transform="matrix(6.9999 0 0 6.9999 -135.43 119.74)">
    <polygon id="polygon590" points="88.143 49.576 86.649 47.328 89.174 48.284 90 45.714 90 45.714 90.826 48.284 93.351 47.328 91.857 49.576 94.178 50.954 91.489 51.188 91.86 53.861 90 51.905 88.14 53.861 88.511 51.188 85.822 50.954"/>
    <polygon id="polygon592" points="88.143 9.5762 86.649 7.3279 89.174 8.2839 90 5.7143 90 5.7143 90.826 8.2839 93.351 7.3279 91.857 9.5762 94.178 10.954 91.489 11.188 91.86 13.861 90 11.905 88.14 13.861 88.511 11.188 85.822 10.954"/>
    <polygon id="polygon593" points="73.143 25.826 71.649 23.578 74.174 24.534 75 21.964 75 21.964 75.826 24.534 78.351 23.578 76.857 25.826 79.178 27.204 76.489 27.438 76.86 30.111 75 28.155 73.14 30.111 73.511 27.438 70.822 27.204"/>
    <polygon id="polygon594" points="101.48 21.826 99.983 19.578 102.51 20.534 103.33 17.964 103.33 17.964 104.16 20.534 106.68 19.578 105.19 21.826 107.51 23.204 104.82 23.438 105.19 26.111 103.33 24.155 101.47 26.111 101.84 23.438 99.155 23.204"/>
    <polygon id="polygon595" points="96 33.611 94.53 34.522 94.943 32.843 93.622 31.728 95.347 31.601 96 30 96 30 96.653 31.601 98.378 31.728 97.057 32.843 97.47 34.522"/>
   </g>
  </g>
 </g>
</svg>
